www/assets/icons/view_headline.svg

<svg xmlns="http://www.w3.org/2000/svg" width="24" height="24" viewBox="0 0 24 24" fill='currentColor'><path d="M4 15h16v-2H4zm0 4h16v-2H4zm0-8h16V9H4zm0-6v2h16V5z"/></svg>

<svg width="24" height="24" viewBox="0 0 24 24" xmlns="http://www.w3.org/2000/svg" fill='currentColor'><path d="M4 15H20V13H4V15ZM4 19H20V17H4V19ZM4 11H20V9H4V11ZM4 5V7H20V5H4Z"/></svg>
